icons/solid/question-mark-circle.svg

<svg width="24" height="24" viewBox="0 0 24 24" fill="none" xmlns="http://www.w3.org/2000/svg">
<path fill-rule="evenodd" clip-rule="evenodd" d="M2 12C2 6.47715 6.47715 2 12 2C17.5228 2 22 6.47715 22 12C22 17.5228 17.5228 22 12 22C6.47715 22 2 17.5228 2 12ZM12 7C10.8954 7 10 7.89543 10 9C10 9.55228 9.55228 10 9 10C8.44772 10 8 9.55228 8 9C8 6.79086 9.79086 5 12 5C14.2091 5 16 6.79086 16 9C16 10.7522 14.874 12.2388 13.3091 12.7806C13.186 12.8232 13.0903 12.8901 13.0372 12.9489C13.0114 12.9774 13.0026 12.9952 13 13.0027V13.5C13 14.0523 12.5523 14.5 12 14.5C11.4477 14.5 11 14.0523 11 13.5V13C11 11.8475 11.9238 11.1437 12.6547 10.8907C13.4391 10.6191 14 9.87376 14 9C14 7.89543 13.1046 7 12 7ZM12.9991 13.0069C12.9989 13.0069 12.999 13.0056 12.9999 13.003C12.9997 13.0056 12.9992 13.0069 12.9991 13.0069ZM13 17C13 17.5523 12.5523 18 12 18C11.4477 18 11 17.5523 11 17C11 16.4477 11.4477 16 12 16C12.5523 16 13 16.4477 13 17Z" fill="currentColor"/>
</svg>

<svg width="24" height="24" fill="none" xmlns="http://www.w3.org/2000/svg"><path fill-rule="evenodd" clip-rule="evenodd" d="M2 12C2 6.477 6.477 2 12 2s10 4.477 10 10-4.477 10-10 10S2 17.523 2 12zm10-5a2 2 0 00-2 2 1 1 0 01-2 0 4 4 0 115.31 3.78.674.674 0 00-.273.169.177.177 0 00-.037.054v.497a1 1 0 11-2 0V13c0-1.152.924-1.856 1.655-2.11A2.001 2.001 0 0012 7zm1 6.007v-.004.004zM13 17a1 1 0 11-2 0 1 1 0 012 0z" fill="currentColor"/></svg>
